X:1
T:Title
L:1/8
M:4/4
K:C
V:1 treble nm="Grand Piano"
V:1
 z4[Q:1/4=100] A,2 C2 | E2 E2 F2 FG | F2 EE D2 DD | C2 D2- D E2 F | E4 A,2 C2 | E2 E2 F2 FG | %6
 A2 AA GABA | AGGF- F G2 F | E4 E2 EE | A2 A2 B2 cc | B2 A2 G2 GG | A2 G2 FF E2 | F4 D2 D2 | %13
 G2 G2 A2 B2 | A2 GG F2 F2 | GG F2 EE D2 | E4 E2 E2 | C2 A,2 F2 FF | D2 B,2 E2 FF | ^G2 AA B2 c2 | %20
 d4 c2 c2 | B2 BB c2 dd | e2 d2 c2 BA | ^G2 EE c2 BB | A4 z4 |] %25

